X:1
T:James Gibb editions
T:Psalm 34 (Becker) - Schütz
%%score [ ( 1 2 ) ( 3 4 ) ]
L:1/8
Q:1/4=120
M:2/2
K:F
V:1 treble nm="Soprano Alto"
V:2 treble 
V:3 bass nm="Tenor Bass"
V:4 bass 
V:1
"^Cornelius Becker\n(1561-1604)""^Heinrich Schütz\n(1585-1672)""^Psalm 34, SWV 131" c4 d4 | %1
w: |
 c2 B4 G2 | A4 F2 G2 | A2 c2 B2 B2 | A8 :|[M:2/2][Q:1/4=121][Q:1/4=121] f4 c4 | d2 B4 c2 | A6 A2 | %8
w: ||||mein Mund|soll al- le-|zeit des|
 B2 B2 c2 c2 | d4 G2 | G2 A2 A2 B2 | B2 c4 F2 | B2 A2 G2 G2 | ^F2 (G4 A4 | B4) A4 | G2 F2 F2 E2 | %16
w: Her- ren Ruhm ver-|kün- den,|||||||
 F8 |] %17
w: |
V:2
 F4 F4 | F2 D4 E2 | F4 C2 E2 | F2 E2 G2 G2 | ^F8 :|[M:2/2] D4 F4 | F2 D4 _E2 | D6 D2 | %8
w: ~Ich will|bei mei- nem|Le- ben rüh-|men den Her- ren|mein,||||
w: im Her-|zen soll mir|schwe- ben das|Lob der Eh- ren|sein,||||
 D2 D2 F2 G2 | F4 E2 | E2 F2 C2 G2 | G2 _E4 D2 | G2 F2 D2 _E2 | D2 (B,4 =F4 | D4) F4 | %15
w: ||daß der E- lend|em- pfin- de|in Trüb- sal Trost|und Freud, *|* in|
w: |||||||
 F2 D2 D2 C2 | C8 |] %17
w: Trüb- sal Trost und|Freud.|
w: ||
V:3
 A,4 B,4 | A,2 B,4 C2 | C4 A,2 C2 | C2 A,2 D2 D2 | D8 :|[M:2/2] F,4 A,4 | A,2 G,4 G,2 | ^F,6 F,2 | %8
w: ||||||||
 G,2 B,2 A,2 C2- | C2 =B,2 C2 | %10
w: ||
"^2. Laßt uns beisammen stehen, ihr lieben Christenleut,\ndes Herren Nam erhöhen in Lieb und Einigkeit.\nIch rief in meiner Not, als in G'fahr stund mein Leben,\nden Feinden übergeben half mir der treue Gott.\n\n4. Er hat Befehl gegeben den lieben Engelein,\nsie solln im ganzen Leben stets unsre Wächter sein,\ngleich wie ein Wagenburg, die Feinde zu bestreiten,\nsie denen stehn zur Seiten, die leb'n in Gottesfurcht.\n\n10. Des Frommen G'schrei Gott höret, hilft ihm aus aller Not,\nzu denen er sich kehret, die b'trübt bis in den Tod\nzerbrochens Herzens sind. Wenn sie gleich sind zerschlagen\nund alle Welt verzaget, dennoch Gott Hülfe find't.\n\n11. Viel muß der G'rechte leiden, das ist des Herren Will,\ndoch wird's verkehrt in Freuden mit Gnad, drum halt nur still,\nGott faßt in seine Huld all seine treuen Knechte,\ndie halten seine Rechte und haben keine Schuld." C2 C2 A,2 G,2 | %11
w: |
 B,2- B,2 A,2 B,2 | D2 C2 B,2 A,2 | A,2 (G,4 C4 | B,4) C4 | C2 A,2 B,2 G,2 | A,8 |] %17
w: em\- * pfin- de||||||
V:4
 F,4 B,,4 | F,2 G,4 C,2 | F,4 F,2 C,2 | F,2 A,2 G,2 G,2 | D,8 :|[M:2/2] B,,4 F,4 | D,2 G,4 C,2 | %7
 D,6 D,2 | G,2 G,2 F,2 _E,2 | D,4 C,2 | C,2 F,2 F,2 _E,2 | D,2 C,4 B,,2 | G,,2 A,,2 B,,2 C,2 | %13
 D,2 (_E,4 F,4 | G,4) F,4 | C,2 D,2 B,,2 C,2 | F,8 |] %17

